X:1
T:Title
%%score [ 1 2 3 4 ]
L:1/8
Q:1/4=192
M:3/4
K:G
V:1 treble nm="S"
V:2 treble nm="A"
V:3 treble-8 nm="T"
V:4 bass nm="B"
V:1
 E2 | G3 A B2 | B3 ^c ^d2 | e4 B2 | B4 E2 | G3 A B2 | F4 A2 | G2 F4 | E4 E2 | G3 A B2 | B3 ^c ^d2 | %11
w: Now|foot is as|I do _|Tom Boy|Tom, Now|foot is as|I do|Swith- en|a Now|foot is as|I do _|
 e4 B2 | B4 E2 | G3 A B2 | F4 A2 | G2 F4 | E4 E2 | G3 G G2 | A4 A2 | B2 ^c4 | d4 c2 | B3 A c2 | %22
w: Tom Boy|Tom, Now|foot is as|I do|Swith- en|a And|Hick so must|trik it|all al-|one Till|Ro- bin come|
 B3 A B2 | ^G2 A4 | ^G4 E2 | G3 G G2 | A4 A2 | B2 ^c4 | d4 c2 | B3 A c2 | B3 A B2 | ^G2 A4 | ^G4 |] %33
w: leap- ing in|bet- ween|a And|Hick so must|trik it|all al-|one Till|Ro- bin come|leap- ing in|bet- ween|a|
V:2
 E2 | B4 B2 | A4 A2 | B3 A G2 | F4 E2 | B3 c B2 | A4 c2 | B6 | E4 E2 | B4 B2 | A4 A2 | B3 A G2 | %12
w: The|cramp is|in my|purse full _|sore No|mo- ney will|bide there|in|a And|if I|had some|salve there- *|
 F4 E2 | B3 c B2 | A4 c2 | B6 | E4 z2 | z6 | z6 | z6 | A6 | E4 G2 | F6 | E4 z2 | B6 | E4 G2 | F6 | %27
w: fore A|Light- ly then|would I|sing|a||||Hey|hoe, the|cramp|a,|hey|hoe, the|cramp|
 E4 z2 | A6 | E4 G2 | F6 | E3 E c2 | B4 |] %33
w: a,|hey|hoe, the|cramp|a, the cramp|a.|
V:3
 z2 | E3 F G2 | F3 G A2 | G3 F E2 | D4 G2 | G4 G2 | A4 A2 | B6 | B4 z2 | E3 F G2 | F3 G A2 | %11
w: |Ro- bin Hood,|Ro- bin Hood|said Lit- tle|John, Come|dance be-|fore the|Queen|a|Ro- bin Hood,|Ro- bin Hood|
 G3 F E2 | D4 G2 | G4 G2 | A4 A2 | B6 | B4 z2 | B3 c B2 | A3 G F2 | G3 F E2 | D3 E F2 | G4 E2 | %22
w: said Lit- tle|John, Come|dance be-|fore the|Queen|a|In a red|pet- ti- coat|and a green|jack- et, A|white hose|
 ^D3 ^C D2 | E6 | E4 z2 | B3 c B2 | A3 G F2 | G3 F E2 | D3 E F2 | G4 E2 | ^D3 ^C D2 | E6 | E4 |] %33
w: and _ a|green|a|In a red|pet- ti- coat|and a green|jack- et, A|white hose|and _ a|green|a|
V:4
 E,2 | E,4 B,,2 | D,3 E, F,2 | E,4 E,2 | B,,4 E,2 | E,4 B,,2 | D,4 A,,2 | E,2 B,,4 | E,4 E,2 | %9
w: Sing|af- ter|fel- lows as|you hear|me, A|toy that|sel- dom|is seen|a, Sing|
 E,4 B,,2 | D,3 E, F,2 | E,4 E,2 | B,,4 E,2 | E,4 B,,2 | D,4 A,,2 | E,2 B,,4 | E,4 E,2 | E,4 B,,2 | %18
w: af- ter|fel- lows as|you hear|me, A|toy that|sel- dom|is seen|a, Three|coun- try|
 D,3 E, D,2 | G,,2 A,,4 | D,4 A,,2 | E,3 A,, E,2 | B,,4 B,,2 | ^C,2 A,,4 | E,4 E,2 | E,4 B,,2 | %26
w: dan- ces in|on to|be, A|pret- ty con-|ciet as|I ween|a Three|coun- try|
 D,3 E, D,2 | G,,2 A,,4 | D,4 A,,2 | E,3 A,, E,2 | B,,4 B,,2 | ^C,2 A,,4 | E,4 |] %33
w: dan- ces in|on to|be, A|pret- ty con-|ciet as|I ween|a|

